documentation/public/assets/images/tab.svg

<svg width="210" height="48" viewBox="0 0 210 48" fill="none" xmlns="http://www.w3.org/2000/svg">
<rect width="210" height="48" fill="white"/>
<path d="M16.6364 20.1307V18.3636H25.9205V20.1307H22.3239V30H20.233V20.1307H16.6364ZM28.9432 30.1761C28.3902 30.1761 27.892 30.0777 27.4489 29.8807C27.0095 29.6799 26.661 29.3845 26.4034 28.9943C26.1496 28.6042 26.0227 28.1231 26.0227 27.5511C26.0227 27.0587 26.1136 26.6515 26.2955 26.3295C26.4773 26.0076 26.7254 25.75 27.0398 25.5568C27.3542 25.3636 27.7083 25.2178 28.1023 25.1193C28.5 25.017 28.911 24.9432 29.3352 24.8977C29.8466 24.8447 30.2614 24.7973 30.5795 24.7557C30.8977 24.7102 31.1288 24.642 31.2727 24.5511C31.4205 24.4564 31.4943 24.3106 31.4943 24.1136V24.0795C31.4943 23.6515 31.3674 23.3201 31.1136 23.0852C30.8598 22.8504 30.4943 22.733 30.017 22.733C29.5133 22.733 29.1136 22.8428 28.8182 23.0625C28.5265 23.2822 28.3295 23.5417 28.2273 23.8409L26.3068 23.5682C26.4583 23.0379 26.7083 22.5947 27.0568 22.2386C27.4053 21.8788 27.8314 21.6098 28.3352 21.4318C28.839 21.25 29.3958 21.1591 30.0057 21.1591C30.4261 21.1591 30.8447 21.2083 31.2614 21.3068C31.678 21.4053 32.0587 21.5682 32.4034 21.7955C32.7481 22.0189 33.0246 22.3239 33.233 22.7102C33.4451 23.0966 33.5511 23.5795 33.5511 24.1591V30H31.5739V28.8011H31.5057C31.3807 29.0436 31.2045 29.2708 30.9773 29.483C30.7538 29.6913 30.4716 29.8598 30.1307 29.9886C29.7936 30.1136 29.3977 30.1761 28.9432 30.1761ZM29.4773 28.6648C29.8902 28.6648 30.2481 28.5833 30.5511 28.4205C30.8542 28.2538 31.0871 28.0341 31.25 27.7614C31.4167 27.4886 31.5 27.1913 31.5 26.8693V25.8409C31.4356 25.8939 31.3258 25.9432 31.1705 25.9886C31.0189 26.0341 30.8485 26.0739 30.6591 26.108C30.4697 26.142 30.2822 26.1723 30.0966 26.1989C29.911 26.2254 29.75 26.2481 29.6136 26.267C29.3068 26.3087 29.0322 26.3769 28.7898 26.4716C28.5473 26.5663 28.3561 26.6989 28.2159 26.8693C28.0758 27.036 28.0057 27.2519 28.0057 27.517C28.0057 27.8958 28.1439 28.1818 28.4205 28.375C28.697 28.5682 29.0492 28.6648 29.4773 28.6648ZM35.7102 30V18.3636H37.767V22.7159H37.8523C37.9583 22.5038 38.108 22.2784 38.3011 22.0398C38.4943 21.7973 38.7557 21.5909 39.0852 21.4205C39.4148 21.2462 39.8352 21.1591 40.3466 21.1591C41.0208 21.1591 41.6288 21.3314 42.1705 21.6761C42.7159 22.017 43.1477 22.5227 43.4659 23.1932C43.7879 23.8598 43.9489 24.678 43.9489 25.6477C43.9489 26.6061 43.7917 27.4205 43.4773 28.0909C43.1629 28.7614 42.7348 29.2727 42.1932 29.625C41.6515 29.9773 41.0379 30.1534 40.3523 30.1534C39.8523 30.1534 39.4375 30.0701 39.108 29.9034C38.7784 29.7367 38.5133 29.536 38.3125 29.3011C38.1155 29.0625 37.9621 28.8371 37.8523 28.625H37.733V30H35.7102ZM37.7273 25.6364C37.7273 26.2008 37.8068 26.6951 37.9659 27.1193C38.1288 27.5436 38.3617 27.875 38.6648 28.1136C38.9716 28.3485 39.3428 28.4659 39.7784 28.4659C40.233 28.4659 40.6136 28.3447 40.9205 28.1023C41.2273 27.8561 41.4583 27.5208 41.6136 27.0966C41.7727 26.6686 41.8523 26.1818 41.8523 25.6364C41.8523 25.0947 41.7746 24.6136 41.6193 24.1932C41.464 23.7727 41.233 23.4432 40.9261 23.2045C40.6193 22.9659 40.2367 22.8466 39.7784 22.8466C39.339 22.8466 38.9659 22.9621 38.6591 23.1932C38.3523 23.4242 38.1193 23.7481 37.9602 24.1648C37.8049 24.5814 37.7273 25.072 37.7273 25.6364ZM50.4077 18.3636V30H48.2997V20.4148H48.2315L45.5099 22.1534V20.2216L48.402 18.3636H50.4077Z" fill="#0F67F5"/>
<line x1="8.74228e-08" y1="47" x2="69" y2="47" stroke="#0F67F5" stroke-width="2"/>
<path d="M85.7727 19.6136V18.3636H94.5V19.6136H90.8409V30H89.4318V19.6136H85.7727ZM97.8736 30.2045C97.3205 30.2045 96.8187 30.1004 96.3679 29.892C95.9171 29.6799 95.5592 29.375 95.294 28.9773C95.0289 28.5758 94.8963 28.0909 94.8963 27.5227C94.8963 27.0227 94.9948 26.6174 95.1918 26.3068C95.3887 25.9924 95.652 25.7462 95.9815 25.5682C96.3111 25.3902 96.6747 25.2576 97.0724 25.1705C97.474 25.0795 97.8774 25.0076 98.2827 24.9545C98.813 24.8864 99.2429 24.8352 99.5724 24.8011C99.9058 24.7633 100.148 24.7008 100.3 24.6136C100.455 24.5265 100.533 24.375 100.533 24.1591V24.1136C100.533 23.553 100.379 23.1174 100.072 22.8068C99.7694 22.4962 99.3092 22.3409 98.6918 22.3409C98.0516 22.3409 97.5497 22.4811 97.1861 22.7614C96.8224 23.0417 96.5668 23.3409 96.419 23.6591L95.1463 23.2045C95.3736 22.6742 95.6766 22.2614 96.0554 21.9659C96.438 21.6667 96.8546 21.4583 97.3054 21.3409C97.7599 21.2197 98.2069 21.1591 98.6463 21.1591C98.9266 21.1591 99.2486 21.1932 99.6122 21.2614C99.9796 21.3258 100.334 21.4602 100.675 21.6648C101.019 21.8693 101.305 22.178 101.533 22.5909C101.76 23.0038 101.874 23.5568 101.874 24.25V30H100.533V28.8182H100.464C100.374 29.0076 100.222 29.2102 100.01 29.4261C99.7978 29.642 99.5156 29.8258 99.1634 29.9773C98.8111 30.1288 98.3812 30.2045 97.8736 30.2045ZM98.0781 29C98.6084 29 99.0554 28.8958 99.419 28.6875C99.7865 28.4792 100.063 28.2102 100.249 27.8807C100.438 27.5511 100.533 27.2045 100.533 26.8409V25.6136C100.476 25.6818 100.351 25.7443 100.158 25.8011C99.9683 25.8542 99.7486 25.9015 99.4986 25.9432C99.2524 25.9811 99.0118 26.0152 98.777 26.0455C98.5459 26.072 98.3584 26.0947 98.2145 26.1136C97.866 26.1591 97.5402 26.233 97.2372 26.3352C96.938 26.4337 96.6955 26.5833 96.5099 26.7841C96.3281 26.9811 96.2372 27.25 96.2372 27.5909C96.2372 28.0568 96.4096 28.4091 96.7543 28.6477C97.1027 28.8826 97.544 29 98.0781 29ZM104.503 30V18.3636H105.844V22.6591H105.957C106.056 22.5076 106.192 22.3144 106.366 22.0795C106.545 21.8409 106.798 21.6288 107.128 21.4432C107.461 21.2538 107.912 21.1591 108.48 21.1591C109.215 21.1591 109.863 21.3428 110.423 21.7102C110.984 22.0777 111.421 22.5985 111.736 23.2727C112.05 23.947 112.207 24.7424 112.207 25.6591C112.207 26.5833 112.05 27.3845 111.736 28.0625C111.421 28.7367 110.986 29.2595 110.429 29.6307C109.872 29.9981 109.23 30.1818 108.503 30.1818C107.942 30.1818 107.493 30.089 107.156 29.9034C106.819 29.714 106.56 29.5 106.378 29.2614C106.196 29.0189 106.056 28.8182 105.957 28.6591H105.798V30H104.503ZM105.821 25.6364C105.821 26.2955 105.918 26.8769 106.111 27.3807C106.304 27.8807 106.586 28.2727 106.957 28.5568C107.329 28.8371 107.783 28.9773 108.321 28.9773C108.882 28.9773 109.349 28.8295 109.724 28.5341C110.103 28.2348 110.387 27.8333 110.577 27.3295C110.77 26.822 110.866 26.2576 110.866 25.6364C110.866 25.0227 110.772 24.4697 110.582 23.9773C110.397 23.4811 110.115 23.089 109.736 22.8011C109.361 22.5095 108.889 22.3636 108.321 22.3636C107.776 22.3636 107.317 22.5019 106.946 22.7784C106.575 23.0511 106.295 23.4337 106.105 23.9261C105.916 24.4148 105.821 24.9848 105.821 25.6364ZM114.236 30V28.9773L118.077 24.7727C118.527 24.2803 118.899 23.8523 119.19 23.4886C119.482 23.1212 119.698 22.7765 119.838 22.4545C119.982 22.1288 120.054 21.7879 120.054 21.4318C120.054 21.0227 119.955 20.6686 119.759 20.3693C119.565 20.0701 119.3 19.839 118.963 19.6761C118.626 19.5133 118.247 19.4318 117.827 19.4318C117.38 19.4318 116.99 19.5246 116.656 19.7102C116.327 19.892 116.071 20.1477 115.889 20.4773C115.711 20.8068 115.622 21.1932 115.622 21.6364H114.281C114.281 20.9545 114.438 20.3561 114.753 19.8409C115.067 19.3258 115.495 18.9242 116.037 18.6364C116.582 18.3485 117.194 18.2045 117.872 18.2045C118.554 18.2045 119.158 18.3485 119.685 18.6364C120.211 18.9242 120.624 19.3125 120.923 19.8011C121.223 20.2898 121.372 20.8333 121.372 21.4318C121.372 21.8598 121.295 22.2784 121.139 22.6875C120.988 23.0928 120.723 23.5455 120.344 24.0455C119.969 24.5417 119.448 25.1477 118.781 25.8636L116.168 28.6591V28.75H121.577V30H114.236Z" fill="#333333"/>
<path d="M155.773 19.6136V18.3636H164.5V19.6136H160.841V30H159.432V19.6136H155.773ZM167.874 30.2045C167.321 30.2045 166.819 30.1004 166.368 29.892C165.917 29.6799 165.559 29.375 165.294 28.9773C165.029 28.5758 164.896 28.0909 164.896 27.5227C164.896 27.0227 164.995 26.6174 165.192 26.3068C165.389 25.9924 165.652 25.7462 165.982 25.5682C166.311 25.3902 166.675 25.2576 167.072 25.1705C167.474 25.0795 167.877 25.0076 168.283 24.9545C168.813 24.8864 169.243 24.8352 169.572 24.8011C169.906 24.7633 170.148 24.7008 170.3 24.6136C170.455 24.5265 170.533 24.375 170.533 24.1591V24.1136C170.533 23.553 170.379 23.1174 170.072 22.8068C169.769 22.4962 169.309 22.3409 168.692 22.3409C168.052 22.3409 167.55 22.4811 167.186 22.7614C166.822 23.0417 166.567 23.3409 166.419 23.6591L165.146 23.2045C165.374 22.6742 165.677 22.2614 166.055 21.9659C166.438 21.6667 166.855 21.4583 167.305 21.3409C167.76 21.2197 168.207 21.1591 168.646 21.1591C168.927 21.1591 169.249 21.1932 169.612 21.2614C169.98 21.3258 170.334 21.4602 170.675 21.6648C171.019 21.8693 171.305 22.178 171.533 22.5909C171.76 23.0038 171.874 23.5568 171.874 24.25V30H170.533V28.8182H170.464C170.374 29.0076 170.222 29.2102 170.01 29.4261C169.798 29.642 169.516 29.8258 169.163 29.9773C168.811 30.1288 168.381 30.2045 167.874 30.2045ZM168.078 29C168.608 29 169.055 28.8958 169.419 28.6875C169.786 28.4792 170.063 28.2102 170.249 27.8807C170.438 27.5511 170.533 27.2045 170.533 26.8409V25.6136C170.476 25.6818 170.351 25.7443 170.158 25.8011C169.968 25.8542 169.749 25.9015 169.499 25.9432C169.252 25.9811 169.012 26.0152 168.777 26.0455C168.546 26.072 168.358 26.0947 168.214 26.1136C167.866 26.1591 167.54 26.233 167.237 26.3352C166.938 26.4337 166.696 26.5833 166.51 26.7841C166.328 26.9811 166.237 27.25 166.237 27.5909C166.237 28.0568 166.41 28.4091 166.754 28.6477C167.103 28.8826 167.544 29 168.078 29ZM174.503 30V18.3636H175.844V22.6591H175.957C176.056 22.5076 176.192 22.3144 176.366 22.0795C176.545 21.8409 176.798 21.6288 177.128 21.4432C177.461 21.2538 177.912 21.1591 178.48 21.1591C179.215 21.1591 179.863 21.3428 180.423 21.7102C180.984 22.0777 181.421 22.5985 181.736 23.2727C182.05 23.947 182.207 24.7424 182.207 25.6591C182.207 26.5833 182.05 27.3845 181.736 28.0625C181.421 28.7367 180.986 29.2595 180.429 29.6307C179.872 29.9981 179.23 30.1818 178.503 30.1818C177.942 30.1818 177.493 30.089 177.156 29.9034C176.819 29.714 176.56 29.5 176.378 29.2614C176.196 29.0189 176.056 28.8182 175.957 28.6591H175.798V30H174.503ZM175.821 25.6364C175.821 26.2955 175.918 26.8769 176.111 27.3807C176.304 27.8807 176.586 28.2727 176.957 28.5568C177.329 28.8371 177.783 28.9773 178.321 28.9773C178.882 28.9773 179.349 28.8295 179.724 28.5341C180.103 28.2348 180.387 27.8333 180.577 27.3295C180.77 26.822 180.866 26.2576 180.866 25.6364C180.866 25.0227 180.772 24.4697 180.582 23.9773C180.397 23.4811 180.115 23.089 179.736 22.8011C179.361 22.5095 178.889 22.3636 178.321 22.3636C177.776 22.3636 177.317 22.5019 176.946 22.7784C176.575 23.0511 176.295 23.4337 176.105 23.9261C175.916 24.4148 175.821 24.9848 175.821 25.6364ZM188.168 30.1591C187.418 30.1591 186.749 30.0303 186.162 29.7727C185.579 29.5152 185.115 29.1572 184.77 28.6989C184.429 28.2367 184.243 27.7008 184.213 27.0909H185.645C185.675 27.4659 185.804 27.7898 186.031 28.0625C186.259 28.3314 186.556 28.5398 186.923 28.6875C187.291 28.8352 187.698 28.9091 188.145 28.9091C188.645 28.9091 189.088 28.822 189.474 28.6477C189.861 28.4735 190.164 28.2311 190.384 27.9205C190.603 27.6098 190.713 27.25 190.713 26.8409C190.713 26.4129 190.607 26.036 190.395 25.7102C190.183 25.3807 189.872 25.1231 189.463 24.9375C189.054 24.7519 188.554 24.6591 187.963 24.6591H187.031V23.4091H187.963C188.425 23.4091 188.83 23.3258 189.179 23.1591C189.531 22.9924 189.806 22.7576 190.003 22.4545C190.204 22.1515 190.304 21.7955 190.304 21.3864C190.304 20.9924 190.217 20.6496 190.043 20.358C189.868 20.0663 189.622 19.839 189.304 19.6761C188.99 19.5133 188.618 19.4318 188.19 19.4318C187.789 19.4318 187.41 19.5057 187.054 19.6534C186.702 19.7973 186.414 20.0076 186.19 20.2841C185.967 20.5568 185.846 20.8864 185.827 21.2727H184.463C184.486 20.6629 184.67 20.1288 185.014 19.6705C185.359 19.2083 185.81 18.8485 186.366 18.5909C186.927 18.3333 187.543 18.2045 188.213 18.2045C188.933 18.2045 189.55 18.3504 190.065 18.642C190.58 18.9299 190.976 19.3106 191.253 19.7841C191.529 20.2576 191.668 20.7689 191.668 21.3182C191.668 21.9735 191.495 22.5322 191.151 22.9943C190.81 23.4564 190.346 23.7765 189.759 23.9545V24.0455C190.493 24.1667 191.067 24.4792 191.48 24.983C191.893 25.483 192.099 26.1023 192.099 26.8409C192.099 27.4735 191.927 28.0417 191.582 28.5455C191.241 29.0455 190.776 29.4394 190.185 29.7273C189.594 30.0152 188.921 30.1591 188.168 30.1591Z" fill="#333333"/>
<line y1="47.5" x2="210" y2="47.5" stroke="#757575"/>
</svg>

<svg width="210" height="48" fill="none" xmlns="http://www.w3.org/2000/svg"><path fill="#fff" d="M0 0h210v48H0z"/><path d="M16.64 20.13v-1.77h9.28v1.77h-3.6V30h-2.09v-9.87h-3.6Zm12.3 10.05c-.55 0-1.05-.1-1.5-.3a2.5 2.5 0 0 1-1.04-.89 2.6 2.6 0 0 1-.38-1.44c0-.5.1-.9.28-1.22.18-.32.43-.58.74-.77.31-.2.67-.34 1.06-.44.4-.1.81-.18 1.24-.22l1.24-.14c.32-.05.55-.12.7-.2.14-.1.21-.25.21-.45v-.03c0-.43-.12-.76-.38-1-.25-.23-.62-.35-1.1-.35-.5 0-.9.11-1.2.33-.28.22-.48.48-.58.78l-1.92-.27a3.07 3.07 0 0 1 2.03-2.14 5.44 5.44 0 0 1 2.93-.13c.4.1.79.27 1.13.5.35.22.62.52.83.91.22.39.32.87.32 1.45V30h-1.98v-1.2h-.06a2.51 2.51 0 0 1-1.38 1.2c-.34.12-.73.19-1.19.19Zm.54-1.52c.41 0 .77-.08 1.07-.24.3-.17.54-.39.7-.66.17-.27.25-.57.25-.9v-1.02a.97.97 0 0 1-.33.15l-.51.12a16.16 16.16 0 0 1-1.05.16c-.3.04-.58.1-.82.2s-.43.23-.57.4a.97.97 0 0 0-.21.65c0 .38.13.66.41.86.28.19.63.28 1.06.28ZM35.7 30V18.36h2.06v4.36h.08c.1-.22.26-.44.45-.68a2.5 2.5 0 0 1 2.05-.88 3.33 3.33 0 0 1 3.12 2.03c.32.67.48 1.49.48 2.46 0 .96-.16 1.77-.47 2.44a3.3 3.3 0 0 1-3.13 2.06 2.53 2.53 0 0 1-2.04-.85 3.9 3.9 0 0 1-.46-.67h-.12V30H35.7Zm2.02-4.36c0 .56.08 1.06.24 1.48.16.42.4.75.7 1 .3.23.67.35 1.1.35.46 0 .84-.13 1.15-.37.3-.24.54-.58.7-1 .15-.43.23-.92.23-1.46 0-.55-.08-1.03-.23-1.45a2.17 2.17 0 0 0-.7-.99c-.3-.23-.68-.35-1.14-.35-.44 0-.81.11-1.12.34-.3.23-.54.56-.7.97-.16.42-.23.91-.23 1.48Zm12.68-7.28V30h-2.1v-9.59h-.07l-2.72 1.74v-1.93l2.9-1.86h2Z" fill="#0F67F5"/><path stroke="#0F67F5" stroke-width="2" d="M0 47h69"/><path d="M85.77 19.61v-1.25h8.73v1.25h-3.66V30h-1.4V19.61h-3.67Zm12.1 10.6a3.5 3.5 0 0 1-1.5-.32 2.67 2.67 0 0 1-1.08-.91c-.26-.4-.4-.89-.4-1.46 0-.5.1-.9.3-1.21.2-.32.46-.56.8-.74.32-.18.68-.31 1.08-.4.4-.1.8-.16 1.21-.22l1.3-.15c.33-.04.57-.1.72-.19.16-.08.23-.23.23-.45v-.05c0-.56-.15-1-.46-1.3-.3-.31-.76-.47-1.38-.47a2.39 2.39 0 0 0-2.27 1.32l-1.27-.46a3.06 3.06 0 0 1 2.16-1.86 5.19 5.19 0 0 1 2.3-.08c.37.07.72.2 1.06.4.35.2.64.52.86.93.23.41.34.97.34 1.66V30h-1.34v-1.18h-.07a2.62 2.62 0 0 1-1.3 1.16c-.35.15-.78.22-1.29.22Zm.2-1.21c.54 0 .99-.1 1.35-.31a2.13 2.13 0 0 0 1.11-1.85v-1.23c-.05.07-.18.13-.37.2-.2.04-.41.1-.66.13a29.88 29.88 0 0 1-1.29.17c-.34.05-.67.12-.97.23-.3.1-.54.24-.73.44-.18.2-.27.47-.27.81 0 .47.17.82.51 1.06.35.23.8.35 1.33.35Zm6.43 1V18.36h1.34v4.3h.12l.4-.58c.19-.24.44-.45.77-.64s.78-.28 1.35-.28a3.46 3.46 0 0 1 3.26 2.11c.31.68.47 1.47.47 2.39 0 .92-.16 1.72-.47 2.4a3.42 3.42 0 0 1-3.23 2.12 2.8 2.8 0 0 1-1.35-.28 2.5 2.5 0 0 1-.78-.64 8.77 8.77 0 0 1-.42-.6h-.16V30h-1.3Zm1.32-4.36c0 .66.1 1.24.3 1.74.18.5.47.9.84 1.18.37.28.82.42 1.36.42a2.2 2.2 0 0 0 1.4-.45c.38-.3.67-.7.86-1.2.19-.5.29-1.07.29-1.7 0-.6-.1-1.16-.29-1.65-.18-.5-.47-.9-.84-1.18a2.2 2.2 0 0 0-1.42-.44 2.24 2.24 0 0 0-2.21 1.57 4.73 4.73 0 0 0-.29 1.7Zm8.42 4.36v-1.02l3.84-4.2c.45-.5.82-.93 1.11-1.3.3-.36.5-.7.65-1.03.14-.32.21-.66.21-1.02a1.9 1.9 0 0 0-1.09-1.75 2.58 2.58 0 0 0-1.13-.25c-.45 0-.84.1-1.17.28a1.9 1.9 0 0 0-.77.77 2.4 2.4 0 0 0-.27 1.16h-1.34a3.27 3.27 0 0 1 1.76-3 3.87 3.87 0 0 1 1.83-.44c.68 0 1.29.15 1.81.44a3.15 3.15 0 0 1 1.69 2.79c0 .43-.08.85-.23 1.26-.15.4-.42.86-.8 1.36-.37.5-.9 1.1-1.56 1.81l-2.61 2.8v.09h5.4V30h-7.33Zm41.53-10.39v-1.25h8.73v1.25h-3.66V30h-1.4V19.61h-3.67Zm12.1 10.6a3.5 3.5 0 0 1-1.5-.32 2.67 2.67 0 0 1-1.08-.91c-.26-.4-.4-.89-.4-1.46 0-.5.1-.9.3-1.21.2-.32.46-.56.8-.74.32-.18.69-.31 1.08-.4.4-.1.8-.16 1.21-.22l1.3-.15c.33-.04.57-.1.72-.19.16-.08.23-.23.23-.45v-.05c0-.56-.15-1-.46-1.3-.3-.31-.76-.47-1.38-.47a2.39 2.39 0 0 0-2.27 1.32l-1.27-.46a3.07 3.07 0 0 1 2.16-1.86 5.2 5.2 0 0 1 2.3-.08c.37.07.72.2 1.06.4.35.2.64.52.86.93.23.41.34.97.34 1.66V30h-1.34v-1.18h-.07a2.62 2.62 0 0 1-1.3 1.16c-.35.15-.78.22-1.29.22Zm.2-1.21c.54 0 .99-.1 1.35-.31a2.13 2.13 0 0 0 1.11-1.85v-1.23c-.05.07-.18.13-.37.2-.2.04-.41.1-.66.13a30.34 30.34 0 0 1-1.29.17c-.34.05-.67.12-.97.23-.3.1-.54.24-.73.44-.18.2-.27.47-.27.81 0 .47.17.82.51 1.06.35.23.8.35 1.33.35Zm6.43 1V18.36h1.34v4.3h.12l.4-.58c.18-.24.44-.45.77-.64s.78-.28 1.35-.28a3.46 3.46 0 0 1 3.26 2.11c.31.68.47 1.47.47 2.39 0 .92-.16 1.72-.47 2.4a3.42 3.42 0 0 1-3.23 2.12 2.8 2.8 0 0 1-1.35-.28 2.5 2.5 0 0 1-.78-.64 8.77 8.77 0 0 1-.42-.6h-.16V30h-1.3Zm1.32-4.36c0 .66.1 1.24.3 1.74.18.5.47.9.84 1.18.37.28.82.42 1.36.42a2.2 2.2 0 0 0 1.4-.45c.38-.3.67-.7.86-1.2.19-.5.29-1.07.29-1.7 0-.6-.1-1.16-.29-1.65-.18-.5-.47-.9-.84-1.18a2.2 2.2 0 0 0-1.42-.44 2.24 2.24 0 0 0-2.22 1.57 4.73 4.73 0 0 0-.28 1.7Zm12.35 4.52c-.75 0-1.42-.13-2-.39a3.44 3.44 0 0 1-1.4-1.07c-.34-.46-.53-1-.56-1.6h1.44c.03.37.15.69.38.96s.53.48.9.63c.36.15.77.22 1.22.22.5 0 .94-.09 1.32-.26.4-.18.7-.42.91-.73.22-.31.33-.67.33-1.08 0-.43-.1-.8-.31-1.13a2.1 2.1 0 0 0-.94-.77 3.5 3.5 0 0 0-1.5-.28h-.93V23.4h.93c.47 0 .87-.08 1.22-.25a1.89 1.89 0 0 0 1.13-1.77 2 2 0 0 0-.27-1.03 1.8 1.8 0 0 0-.74-.68 2.4 2.4 0 0 0-1.11-.25c-.4 0-.78.08-1.14.22-.35.15-.64.36-.86.63-.22.28-.34.6-.36 1h-1.37c.03-.62.21-1.15.55-1.61.35-.46.8-.82 1.36-1.08a4.37 4.37 0 0 1 3.7.05 3.09 3.09 0 0 1 1.6 2.68 2.62 2.62 0 0 1-1.9 2.64v.09c.72.12 1.3.43 1.71.93.41.5.62 1.12.62 1.86 0 .63-.17 1.2-.52 1.7-.34.5-.8.9-1.4 1.19a4.5 4.5 0 0 1-2.01.43Z" fill="#333"/><path stroke="#757575" d="M0 47.5h210"/></svg>
